outputs/icons/device/wifi_off_alt_sharp.svg

<svg xmlns="http://www.w3.org/2000/svg" width="1200" height="1200" fill="none"><g clip-path="url(#a)"><path fill="#000" d="M1182.005 350.003c-22.5-17-246.5-200-582-200-66 0-127.499 7-184.5 19l506 506.002zM170.506 65.503l-70.501 70.5 102.501 102.5c-107.001 49.5-173.001 102.5-184.501 111.5l582 725.002 195.5-243.5 166 166 70.5-70.5z"/></g><defs><clipPath id="a"><path fill="#fff" d="M0 0h1200v1200H0z"/></clipPath></defs></svg>

<svg width="1200" height="1200" viewBox="0 0 1200 1200" fill="none" xmlns="http://www.w3.org/2000/svg"><g clip-path="url(#clip0_133_44)"><path d="M1182.005 350.003C1159.505 333.003 935.505 150.003 600.005 150.003C534.005 150.003 472.506 157.003 415.505 169.003L921.505 675.005L1182.005 350.003ZM170.506 65.503L100.005 136.003L202.506 238.503C95.505 288.003 29.505 341.003 18.005 350.003L600.005 1075.005L795.505 831.505L961.505 997.505L1032.005 927.005L170.506 65.503Z" fill="black"/></g><defs><clipPath id="clip0_133_44"><path width="24" fill="white" d="M0 0H1200V1200H0V0z"/></clipPath></defs></svg>
